src/icons/user.svg

<?xml version="1.0" encoding="UTF-8"?>
<svg xmlns="http://www.w3.org/2000/svg" xmlns:xlink="http://www.w3.org/1999/xlink" width="32" height="32" viewBox="0 0 32 32" version="1.1">
<g id="surface1">
<path style=" stroke:none;fill-rule:nonzero;fill:rgb(0%,0%,0%);fill-opacity:1;" d="M 19.796875 20.816406 C 19.703125 19.785156 19.738281 19.066406 19.738281 18.121094 C 20.207031 17.878906 21.046875 16.316406 21.183594 14.996094 C 21.550781 14.964844 22.132812 14.609375 22.300781 13.191406 C 22.390625 12.433594 22.03125 12.003906 21.808594 11.871094 C 22.40625 10.074219 23.648438 4.511719 19.511719 3.933594 C 19.085938 3.1875 17.996094 2.808594 16.578125 2.808594 C 10.914062 2.914062 10.230469 7.089844 11.472656 11.871094 C 11.25 12.003906 10.886719 12.433594 10.976562 13.191406 C 11.148438 14.609375 11.726562 14.964844 12.09375 14.996094 C 12.234375 16.316406 13.105469 17.878906 13.574219 18.121094 C 13.574219 19.066406 13.609375 19.785156 13.515625 20.816406 C 12.394531 23.832031 4.828125 22.984375 4.480469 28.800781 L 28.800781 28.800781 C 28.449219 22.984375 20.917969 23.832031 19.796875 20.816406 Z M 19.796875 20.816406 "/>
</g>
</svg>

<svg role="img" viewBox="0 0 32 32" xmlns="http://www.w3.org/2000/svg"><path d="M19.797 20.816c-.094-1.03-.059-1.75-.059-2.695.469-.242 1.309-1.805 1.446-3.125.367-.031.949-.387 1.117-1.805.09-.757-.27-1.187-.492-1.32.597-1.797 1.84-7.36-2.297-7.937-.426-.747-1.516-1.125-2.934-1.125-5.664.105-6.348 4.28-5.105 9.062-.223.133-.586.563-.496 1.32.171 1.418.75 1.774 1.117 1.805.14 1.32 1.011 2.883 1.48 3.125 0 .945.035 1.664-.058 2.695-1.121 3.016-8.688 2.168-9.036 7.985H28.8c-.35-5.817-7.882-4.969-9.003-7.985m0 0" style="stroke:none;fill-rule:nonzero;fill:rgb(0%,0%,0%);fill-opacity:1"/></svg>
